src/images/app-icons/light-theme/DCConnectClient.svg

<svg xmlns="http://www.w3.org/2000/svg" xmlns:xlink="http://www.w3.org/1999/xlink" viewBox="0 0 32 32"><defs><style>.cls-1{fill:#fff;}.cls-2{fill:url(#linear-gradient);}.cls-3{mask:url(#mask);}.cls-4{fill:url(#linear-gradient-2);}.cls-5{fill:#001d6c;}</style><linearGradient id="linear-gradient" x1="25" y1="10" x2="25" y2="15" gradientUnits="userSpaceOnUse"><stop offset="0"/><stop offset="1" stop-opacity="0"/></linearGradient><mask id="mask" x="0" y="0" width="32" height="32" maskUnits="userSpaceOnUse"><path class="cls-1" d="M26,14V10H24v4a1.007,1.007,0,0,1-1.011,1H9.013A3.01,3.01,0,0,0,6,18v2H8V18a1.007,1.007,0,0,1,1.013-1H22.989A3.009,3.009,0,0,0,26,14Z"/><rect class="cls-2" x="23" y="10" width="4" height="5"/><path class="cls-1" d="M22,25H18v2h4v3h8V22H22Zm2-1h4v4H24Z"/><path class="cls-1" d="M28,2H4A2,2,0,0,0,2,4V8a2,2,0,0,0,2,2H28a2,2,0,0,0,2-2V4A2,2,0,0,0,28,2Zm0,6H4V4H28Z"/></mask><linearGradient id="linear-gradient-2" x1="-1160" y1="1130" x2="-1128" y2="1098" gradientTransform="translate(1160 -1098)" gradientUnits="userSpaceOnUse"><stop offset="0.1" stop-color="#ee5396"/><stop offset="0.9" stop-color="#8a3ffc"/></linearGradient></defs><g id="Layer_2" data-name="Layer 2"><g id="Light_theme_icons" data-name="Light theme icons"><g class="cls-3"><rect class="cls-4" width="32" height="32"/></g><circle class="cls-5" cx="7" cy="6" r="1"/><rect class="cls-5" x="2" y="22" width="2" height="8"/><rect class="cls-5" x="6" y="22" width="2" height="8"/><rect class="cls-5" x="14" y="22" width="2" height="8"/><rect class="cls-5" x="10" y="22" width="2" height="8"/></g></g></svg>

<svg xmlns="http://www.w3.org/2000/svg" viewBox="0 0 32 32"><defs><linearGradient id="DCConnectClient_svg__a" x1="25" y1="10" x2="25" y2="15" gradientUnits="userSpaceOnUse"><stop offset="0"/><stop offset="1" stop-opacity="0"/></linearGradient><linearGradient id="DCConnectClient_svg__c" x1="-1160" y1="1130" x2="-1128" y2="1098" gradientTransform="translate(1160 -1098)" gradientUnits="userSpaceOnUse"><stop offset=".1" stop-color="#ee5396"/><stop offset=".9" stop-color="#8a3ffc"/></linearGradient><mask id="DCConnectClient_svg__b" x="0" y="0" width="32" height="32" maskUnits="userSpaceOnUse"><path d="M26 14v-4h-2v4a1.007 1.007 0 01-1.011 1H9.013A3.01 3.01 0 006 18v2h2v-2a1.007 1.007 0 011.013-1h13.976A3.009 3.009 0 0026 14z" fill="#fff"/><path fill="url(#DCConnectClient_svg__a)" d="M23 10h4v5h-4z"/><path d="M22 25h-4v2h4v3h8v-8h-8zm2-1h4v4h-4zM28 2H4a2 2 0 00-2 2v4a2 2 0 002 2h24a2 2 0 002-2V4a2 2 0 00-2-2zm0 6H4V4h24z" fill="#fff"/></mask></defs><g data-name="Layer 2"><g data-name="Light theme icons"><g mask="url(#DCConnectClient_svg__b)"><path fill="url(#DCConnectClient_svg__c)" d="M0 0h32v32H0z"/></g><circle cx="7" cy="6" r="1" fill="#001d6c"/><path fill="#001d6c" d="M2 22h2v8H2zM6 22h2v8H6zM14 22h2v8h-2zM10 22h2v8h-2z"/></g></g></svg>
